svg/600/outlined/process_chart-fill.svg

<svg xmlns="http://www.w3.org/2000/svg" width="48" height="48" viewBox="0 -960 960 960"><path d="m124.522-213.999-70.523-36.044 252.044-495.958 69.958 35.479-251.479 496.523Zm264 0-70.523-36.044 252.044-495.958 69.958 35.479-251.479 496.523Zm264 0-70.523-36.044 252.044-495.958 69.958 35.479-251.479 496.523Z"/></svg>

<svg xmlns="http://www.w3.org/2000/svg" width="48" height="48" viewBox="0 -960 960 960"><path d="M124.52-214 54-250.04 306.04-746 376-710.52 124.52-214Zm264 0L318-250.04 570.04-746 640-710.52 388.52-214Zm264 0L582-250.04 834.04-746 904-710.52 652.52-214Z"/></svg>
